img/icons/pinterest.svg

<svg xmlns="http://www.w3.org/2000/svg" width="24" height="28.5" viewBox="0 0 43 51"><title>pinterest</title><path d="M-13.6-5c0-1.6.2-3 .8-4.4.5-1.4 1.2-2.6 2.2-3.6.9-1 2-1.9 3.2-2.6 1.2-.8 2.5-1.3 3.9-1.7 1.5-.4 2.9-.5 4.4-.5 2.2 0 4.3.4 6.2 1.4 1.9.9 3.5 2.3 4.7 4.1 1.2 1.9 1.8 3.9 1.8 6.2 0 1.4-.1 2.7-.4 4C13-.8 12.5.5 12 1.7c-.6 1.2-1.3 2.3-2.2 3.2C9 5.8 8 6.6 6.7 7.1c-1.2.6-2.5.9-4 .9-1 0-1.9-.3-2.9-.7-.9-.5-1.6-1.1-2-1.9-.1.5-.3 1.4-.6 2.4-.3 1.1-.4 1.7-.5 2-.1.3-.2.9-.4 1.6-.3.7-.4 1.2-.6 1.5-.1.3-.4.7-.7 1.3-.3.6-.6 1.2-1 1.7-.3.5-.7 1.1-1.3 1.8l-.3.1-.2-.2c-.2-2.2-.3-3.6-.3-4 0-1.3.2-2.8.5-4.4.3-1.7.8-3.7 1.4-6.2.6-2.5 1-3.9 1.1-4.4-.5-.9-.7-2.1-.7-3.6 0-1.2.4-2.3 1.1-3.3.8-1.1 1.7-1.6 2.8-1.6.9 0 1.6.3 2.1.9.4.6.7 1.3.7 2.2 0 .9-.3 2.3-1 4.1C-.7-.9-1 .4-1 1.3c0 .9.3 1.6 1 2.2.6.6 1.4.9 2.3.9.8 0 1.5-.2 2.2-.5.6-.4 1.2-.9 1.6-1.5.5-.6.9-1.3 1.2-2 .4-.8.6-1.5.8-2.4.2-.8.4-1.6.5-2.4.1-.7.1-1.4.1-2.1 0-2.5-.8-4.4-2.3-5.8-1.6-1.4-3.6-2.1-6.1-2.1-2.8 0-5.2 1-7.1 2.8-1.9 1.9-2.9 4.2-2.9 7.1 0 .6.1 1.2.3 1.8.2.6.4 1.1.6 1.4.2.3.4.7.5 1 .2.3.3.5.3.6 0 .4-.1.9-.3 1.6-.2.6-.5 1-.8 1 0 0-.1-.1-.4-.1-.7-.2-1.3-.6-1.9-1.2-.5-.6-1-1.3-1.3-2-.3-.8-.5-1.6-.7-2.4-.2-.7-.2-1.5-.2-2.2z" transform="translate(21.734 23.748)" class="ampstart-icon ampstart-icon-pinterest"/></svg>

<svg xmlns="http://www.w3.org/2000/svg" width="24" height="28.5" viewBox="0 0 43 51">
  <title>
    pinterest
  </title>
  <desc>
    Created with Sketch.
  </desc>
  <defs>
    <filter x="-50" y="-50" width="200" height="200" filterUnits="objectBoundingBox">
      <feOffset dx="0" dy="2" in="SourceAlpha" result="shadowOffsetOuter1"/>
      <feGaussianBlur stdDeviation="4" in="shadowOffsetOuter1" result="shadowBlurOuter1"/>
      <feComposite in="shadowBlurOuter1" in2="SourceAlpha" operator="out" result="shadowBlurOuter1"/>
      <feColorMatrix values="0 0 0 0 0   0 0 0 0 0   0 0 0 0 0  0 0 0 0.5 0" type="matrix" in="shadowBlurOuter1" result="shadowMatrixOuter1"/>
      <feMerge>
        <feMergeNode in="shadowMatrixOuter1"/>
        <feMergeNode in="SourceGraphic"/>
      </feMerge>
    </filter>
    <filter x="-50" y="-50" width="200" height="200" filterUnits="objectBoundingBox" id="filter-2">
      <feGaussianBlur stdDeviation="0" in="SourceGraphic"/>
    </filter>
  </defs>
  <g fill="none">
    <g fill="#000" class="ampstart-icon ampstart-icon-pinterest">
      <g filter="url(#filter-2)">
          <path d="M-13.6-5C-13.6-6.6-13.4-8-12.8-9.4 -12.3-10.8-11.6-12-10.6-13 -9.7-14-8.6-14.9-7.4-15.6 -6.2-16.4-4.9-16.9-3.5-17.3 -2-17.7-0.6-17.8 0.9-17.8 3.1-17.8 5.2-17.4 7.1-16.4 9-15.5 10.6-14.1 11.8-12.3 13-10.4 13.6-8.4 13.6-6.1 13.6-4.7 13.5-3.4 13.2-2.1 13-0.8 12.5 0.5 12 1.7 11.4 2.9 10.7 4 9.8 4.9 9 5.8 8 6.6 6.7 7.1 5.5 7.7 4.2 8 2.7 8 1.7 8 0.8 7.7-0.2 7.3 -1.1 6.8-1.8 6.2-2.2 5.4 -2.3 5.9-2.5 6.8-2.8 7.8 -3.1 8.9-3.2 9.5-3.3 9.8 -3.4 10.1-3.5 10.7-3.7 11.4 -4 12.1-4.1 12.6-4.3 12.9 -4.4 13.2-4.7 13.6-5 14.2 -5.3 14.8-5.6 15.4-6 15.9 -6.3 16.4-6.7 17-7.3 17.7L-7.6 17.8 -7.8 17.6C-8 15.4-8.1 14-8.1 13.6 -8.1 12.3-7.9 10.8-7.6 9.2 -7.3 7.5-6.8 5.5-6.2 3 -5.6 0.5-5.2-0.9-5.1-1.4 -5.6-2.3-5.8-3.5-5.8-5 -5.8-6.2-5.4-7.3-4.7-8.3 -3.9-9.4-3-9.9-1.9-9.9 -1-9.9-0.3-9.6 0.2-9 0.6-8.4 0.9-7.7 0.9-6.8 0.9-5.9 0.6-4.5-0.1-2.7 -0.7-0.9-1 0.4-1 1.3 -1 2.2-0.7 2.9 0 3.5 0.6 4.1 1.4 4.4 2.3 4.4 3.1 4.4 3.8 4.2 4.5 3.9 5.1 3.5 5.7 3 6.1 2.4 6.6 1.8 7 1.1 7.3 0.4 7.7-0.4 7.9-1.1 8.1-2 8.3-2.8 8.5-3.6 8.6-4.4 8.7-5.1 8.7-5.8 8.7-6.5 8.7-9 7.9-10.9 6.4-12.3 4.8-13.7 2.8-14.4 0.3-14.4 -2.5-14.4-4.9-13.4-6.8-11.6 -8.7-9.7-9.7-7.4-9.7-4.5 -9.7-3.9-9.6-3.3-9.4-2.7 -9.2-2.1-9-1.6-8.8-1.3 -8.6-1-8.4-0.6-8.3-0.3 -8.1 0-8 0.2-8 0.3 -8 0.7-8.1 1.2-8.3 1.9 -8.5 2.5-8.8 2.9-9.1 2.9 -9.1 2.9-9.2 2.8-9.5 2.8 -10.2 2.6-10.8 2.2-11.4 1.6 -11.9 1-12.4 0.3-12.7-0.4 -13-1.2-13.2-2-13.4-2.8 -13.6-3.5-13.6-4.3-13.6-5L-13.6-5Z" transform="translate(-394 -1111)translate(1 0)translate(69.3 1115.1)translate(345.433728 19.648179)"/>
      </g>
    </g>
  </g>
</svg>
